src/components/Icon/utils/svgsOptimized/arrow-square-in.svg

<svg width="24" height="24" viewBox="0 0 24 24"  xmlns="http://www.w3.org/2000/svg">
<path d="M7.59999 7H16.41C16.73 7 17 7.27 17 7.6V16.41C17 16.73 16.74 17 16.41 17H13.3C13.13 17 13 16.86 13 16.7V16.1C13 15.93 13.13 15.8 13.3 15.8H15.8V8.2H8.19999V10.71C8.19999 10.88 8.06999 11.01 7.89999 11.01H7.29999C7.12999 11.01 6.99999 10.87 6.99999 10.71V7.6C6.99999 7.27 7.26999 7 7.59999 7Z" />
<path d="M11 17.5V13.49C11 13.21 10.78 12.99 10.5 12.99H6.49999C6.21999 12.99 5.99999 13.21 5.99999 13.49C5.99999 13.77 6.21999 13.99 6.49999 13.99H9.29999L5.14999 18.14H5.13999C4.93999 18.34 4.93999 18.65 5.13999 18.85C5.33999 19.05 5.64999 19.05 5.84999 18.85L9.99999 14.71V17.5C9.99999 17.78 10.22 18 10.5 18C10.78 18 11 17.78 11 17.5Z" />
</svg>

<?xml version="1.0" encoding="utf-8"?><svg width="24" height="24" xmlns="http://www.w3.org/2000/svg" viewBox="0 0 24 24"><path d="M7.6 7h8.81a.6.6 0 0 1 .59.6v8.81c0 .32-.26.59-.59.59H13.3a.3.3 0 0 1-.3-.3v-.6c0-.17.13-.3.3-.3h2.5V8.2H8.2v2.51c0 .17-.13.3-.3.3h-.6a.3.3 0 0 1-.3-.3V7.6c0-.33.27-.6.6-.6Z"/><path d="M11 17.5v-4.01c0-.28-.22-.5-.5-.5h-4c-.28 0-.5.22-.5.5s.22.5.5.5h2.8l-4.15 4.15h-.01c-.2.2-.2.51 0 .71.2.2.51.2.71 0L10 14.71v2.79c0 .28.22.5.5.5s.5-.22.5-.5Z"/></svg>
